app/images/social/youtube.svg

<?xml version="1.0" encoding="UTF-8" standalone="no"?>
<svg width="52px" height="22px" viewBox="0 0 52 22" version="1.1" xmlns="http://www.w3.org/2000/svg" xmlns:xlink="http://www.w3.org/1999/xlink" xmlns:sketch="http://www.bohemiancoding.com/sketch/ns">
    <!-- Generator: Sketch Beta 3.3 (11970) - http://www.bohemiancoding.com/sketch -->
    <title>youtube</title>
    <desc>Created with Sketch Beta.</desc>
    <defs>
        <path id="path-1" d="M-1.77635684e-14,3.01980663e-14 L52,3.01980663e-14 L52,22 L-1.77635684e-14,22 L-1.77635684e-14,3.01980663e-14 Z"></path>
        <path id="path-3" d="M1,0 L53,0 L53,22 L1,22"></path>
    </defs>
    <g id="Art" stroke="none" stroke-width="1" fill="none" fill-rule="evenodd" sketch:type="MSPage">
        <g id="Artboard-2" sketch:type="MSArtboardGroup" transform="translate(-933.000000, -720.000000)">
            <g id="youtube" sketch:type="MSLayerGroup" transform="translate(932.000000, 720.000000)">
                <path d="M20,17.8468553 L18.2075472,17.8468553 L18.2075472,16.6655146 C17.5280189,17.5521645 16.9519811,18 16.3240566,18 C15.7731132,18 15.390566,17.7041279 15.1989623,17.1696249 C15.0825472,16.8445414 15,16.3371019 15,15.5915685 L15,7 L16.7924528,7 L16.7924528,15.0545955 L16.7924528,15.8063578 C16.8342453,16.1078144 16.9466981,16.2178939 17.1746226,16.2178939 C17.5177358,16.2178939 17.8282075,15.8785269 18.2075472,15.2693847 L18.2075472,7 L20,7 L20,17.8468553" id="Fill-1" fill="#FFFFFF" sketch:type="MSShapeGroup"></path>
                <g id="Group-5" transform="translate(1.000000, 0.000000)">
                    <mask id="mask-2" sketch:name="Clip 3" fill="white">
                        <use xlink:href="#path-1"></use>
                    </mask>
                    <g id="Clip-3"></g>
                    <path d="M10.9761994,14.4962598 C11.0982971,15.5012994 10.7195501,16 9.99917397,16 C9.27891991,16 8.90053928,15.5012994 9.02263694,14.4962598 L9.02263694,10.4761016 C8.90053928,9.47106204 9.27904201,9 9.99941817,9 C10.7197943,9 11.099518,9.47106204 10.9774204,10.4761016 L10.9761994,14.4962598 L10.9761994,14.4962598 Z M13,10.5864042 C13,9.43902274 12.7591111,8.577397 12.3333333,8.03501396 C11.7708889,7.30063881 10.8888889,7 10,7 C8.99388889,7 8.22822222,7.30063881 7.66666667,8.03501396 C7.23411111,8.577397 7.00211111,9.44837784 7.00211111,10.5957593 L7,14.4134895 C7,15.5544925 7.20633333,16.3428721 7.639,16.8799397 C8.20055556,17.6120824 9.11111111,18 10,18 C10.8888889,18 11.8154444,17.6120824 12.3777778,16.8799397 C12.8035556,16.3428721 13,15.5544925 13,14.4134895 L13,10.5864042 L13,10.5864042 Z" id="Fill-2" fill="#FFFFFF" sketch:type="MSShapeGroup" mask="url(#mask-2)"></path>
                    <path d="M4.5,12.2962963 L4.5,18 L2.5,18 L2.5,12.2962963 C2.5,12.2962963 0.4275,5.30345185 0,4 L2.1,4 L3.5035,9.4626963 L4.9,4 L7,4 L4.5,12.2962963" id="Fill-4" fill="#FFFFFF" sketch:type="MSShapeGroup" mask="url(#mask-2)"></path>
                </g>
                <path d="M41.1095705,9 C40.7592973,9 40.3581458,9.15782307 40.0024675,9.45761667 L40,15.5423833 C40.3557958,15.8460899 40.7592973,16 41.1095705,16 C41.723048,16 42,15.6155257 42,14.6122004 L42,10.2979016 C42,9.29457631 41.723048,9 41.1095705,9" id="Fill-6" fill="#FFFFFF" sketch:type="MSShapeGroup"></path>
                <g id="Group-10">
                    <mask id="mask-4" sketch:name="Clip 8" fill="white">
                        <use xlink:href="#path-3"></use>
                    </mask>
                    <g id="Clip-8"></g>
                    <path d="M49,10.0472664 C49,9.24195164 48.7189412,9 48.0128235,9 C47.3015294,9 47,9.22208669 47,10.0363755 L47,11 L49,10.9983446 L49,10.0472664" id="Fill-7" fill="#FFFFFF" sketch:type="MSShapeGroup" mask="url(#mask-4)"></path>
                    <path d="M48.0282911,16.23794 C48.5142001,16.23794 48.797438,15.978401 48.9100572,15.4602866 C48.9283729,15.3546079 48.9248842,14.8922773 48.9248842,14.1145168 L50.9961842,14.1145168 L50.9961842,14.4179548 C50.9961842,15.0426043 50.9438539,15.4846986 50.9260834,15.6788176 C50.8594712,16.1084917 50.7044426,16.4972648 50.4644862,16.8402118 C49.9185064,17.6171157 49.1085854,18 48.0773508,18 C47.0448078,18 46.2588716,17.6351036 45.6882529,16.9040259 C45.2689561,16.3686731 45,15.5727106 45,14.4357285 L45,10.6882592 C45,9.54474576 45.2446443,8.6607713 45.6639411,8.11963674 C46.2347779,7.38748832 47.0207141,7 48.0282911,7 C49.0184246,7 49.8043609,7.38748832 50.3576451,8.11963674 C50.7702916,8.6607713 50.9995639,9.4973135 50.9995639,10.640827 L51,12.8296702 L47.0714091,12.8296702 L47.0714091,14.7524432 C47.0646498,15.7404902 47.3508313,16.23794 48.0282911,16.23794 L48.0282911,16.23794 Z M44,14.7621462 C44,15.7185285 43.9121111,16.3934392 43.7777778,16.8317897 C43.5093333,17.6006623 42.924,18 42.123,18 C41.4077778,18 40.6748889,17.5992135 40.0027778,16.8247529 L40,17.8666115 L38,17.8666115 L38,4 L40,4 L39.9976667,8.52092927 C40.6474444,7.77627154 41.383,7.35240855 42.123,7.35240855 C42.924,7.35240855 43.4624444,7.78330833 43.7308889,8.55787241 C43.8652222,8.97376727 44,9.64340042 44,10.6228592 L44,14.7621462 L44,14.7621462 Z M37,17.8453454 L34.8490566,17.8453454 L34.8490566,16.6523574 C34.0336226,17.5477491 33.3423774,18 32.5888679,18 C31.9277358,18 31.4686792,17.7012107 31.2387547,17.1614379 C31.0990566,16.8331493 31,16.3207067 31,15.5678228 L31,7 L33.1509434,7 L33.1509434,15.0255556 L33.1509434,15.7847298 C33.2010943,16.0891586 33.3360377,16.2003234 33.6095472,16.2003234 C34.021283,16.2003234 34.3938491,15.8576105 34.8490566,15.2424625 L34.8490566,7 L37,7 L37,17.8453454 L37,17.8453454 Z M29.5555556,18 L27.3333333,18 L27.3333333,5.98507463 L25,5.98507463 L25,4.00219403 L32,4 L32,5.98507463 L29.5555556,5.98507463 L29.5555556,18 L29.5555556,18 Z M52.6904246,4.74604093 C52.6904246,4.74604093 52.3874933,2.59051928 51.4580404,1.64129005 C50.2793285,0.395538486 48.9577675,0.389225022 48.351905,0.316409744 C44.0140083,0 37.5069037,0 37.5069037,0 L37.493304,0 C37.493304,0 30.9860955,0 26.6481988,0.316409744 C26.0421287,0.389225022 24.7210868,0.395538486 23.5420634,1.64129005 C22.6125067,2.59051928 22.3099907,4.74604093 22.3099907,4.74604093 C22.3099907,4.74604093 22,7.27721366 22,9.80859683 L22,12.1817225 C22,14.71279 22.3099907,17.2439628 22.3099907,17.2439628 C22.3099907,17.2439628 22.6125067,19.3993792 23.5420634,20.3487136 C24.7210868,21.5947809 26.2704172,21.5551113 26.960162,21.6855895 C29.440191,21.9258168 37.5000519,22 37.5000519,22 C37.5000519,22 44.0140083,21.9901089 48.351905,21.6739096 C48.9577675,21.6008839 50.2793285,21.5947809 51.4580404,20.3487136 C52.3874933,19.3993792 52.6904246,17.2439628 52.6904246,17.2439628 C52.6904246,17.2439628 53,14.71279 53,12.1817225 L53,9.80859683 C53,7.27721366 52.6904246,4.74604093 52.6904246,4.74604093 L52.6904246,4.74604093 Z" id="Fill-9" fill="#FFFFFF" sketch:type="MSShapeGroup" mask="url(#mask-4)"></path>
                </g>
            </g>
        </g>
    </g>
</svg>

<svg width="52" height="22" viewBox="0 0 52 22" xmlns="http://www.w3.org/2000/svg" xmlns:xlink="http://www.w3.org/1999/xlink"><defs><path id="a" d="M0 0h52v22H0V0z"/><path id="c" d="M1 0h52v22H1"/></defs><g fill="none" fill-rule="evenodd"><path d="M19 17.847h-1.792v-1.18c-.68.885-1.256 1.333-1.884 1.333-.55 0-.933-.296-1.125-.83-.117-.325-.2-.833-.2-1.578V7h1.792v8.805c.042.303.155.413.383.413.343 0 .653-.34 1.033-.95V7H19v10.847" fill="#FFF"/><g><mask id="b" fill="#fff"><use xlink:href="#a"/></mask><path d="M10.976 14.496C11.098 15.5 10.72 16 10 16c-.72 0-1.1-.5-.977-1.504v-4.02C8.9 9.47 9.28 9 10 9s1.1.47.977 1.476v4.02zM13 10.586c0-1.147-.24-2.01-.667-2.55C11.77 7.3 10.89 7 10 7c-1.006 0-1.772.3-2.333 1.035-.433.542-.665 1.413-.665 2.56L7 14.414c0 1.14.206 1.93.64 2.467C8.2 17.612 9.11 18 10 18c.89 0 1.815-.388 2.378-1.12.426-.537.622-1.326.622-2.467v-3.827zM4.5 12.296V18h-2v-5.704S.428 5.303 0 4h2.1l1.403 5.463L4.9 4H7l-2.5 8.296" fill="#FFF" mask="url(#b)"/></g><path d="M40.11 9c-.35 0-.752.158-1.108.458L39 15.542c.356.304.76.458 1.11.458.613 0 .89-.384.89-1.388v-4.314C41 9.295 40.723 9 40.11 9" fill="#FFF"/><g transform="translate(-1)"><mask id="d" fill="#fff"><use xlink:href="#c"/></mask><path d="M49 10.047C49 9.242 48.72 9 48.013 9 47.303 9 47 9.222 47 10.036V11l2-.002v-.95" fill="#FFF" mask="url(#d)"/><path d="M48.028 16.238c.486 0 .77-.26.882-.778.018-.105.015-.568.015-1.345h2.07v.303c0 .625-.05 1.067-.07 1.26-.066.43-.22.82-.46 1.162-.546.777-1.356 1.16-2.388 1.16-1.032 0-1.818-.365-2.39-1.096-.418-.535-.687-1.33-.687-2.468v-3.748c0-1.143.245-2.027.664-2.568.57-.733 1.357-1.12 2.364-1.12.99 0 1.776.387 2.33 1.12.412.54.642 1.377.642 2.52v2.19h-3.93v1.922c-.005.988.28 1.486.958 1.486zM44 14.762c0 .957-.088 1.63-.222 2.07-.27.77-.854 1.168-1.655 1.168-.715 0-1.448-.4-2.12-1.175L40 17.867h-2V4h2l-.002 4.52c.65-.744 1.385-1.168 2.125-1.168.8 0 1.34.43 1.608 1.206.135.416.27 1.085.27 2.065v4.14zm-7 3.083h-2.15v-1.193C34.033 17.548 33.34 18 32.59 18c-.662 0-1.12-.3-1.35-.84-.14-.327-.24-.84-.24-1.592V7h2.15v8.786c.05.303.186.414.46.414.41 0 .784-.342 1.24-.958V7H37v10.845zM29.556 18h-2.223V5.985H25V4.002L32 4v1.985h-2.444V18zM52.69 4.746s-.303-2.155-1.232-3.105C50.278.397 48.958.39 48.352.317 44.014 0 37.507 0 37.507 0h-.014s-6.507 0-10.845.316c-.606.073-1.927.08-3.106 1.325-.93.95-1.232 3.106-1.232 3.106S22 7.276 22 9.81v2.372c0 2.53.31 5.062.31 5.062s.303 2.155 1.232 3.105c1.18 1.245 2.728 1.205 3.418 1.336 2.48.24 10.54.314 10.54.314s6.514-.01 10.852-.326c.606-.073 1.927-.08 3.106-1.325.93-.95 1.232-3.106 1.232-3.106s.31-2.53.31-5.062V9.81c0-2.533-.31-5.064-.31-5.064z" fill="#FFF" mask="url(#d)"/></g></g></svg>
